X: 25187
T: Major, The
R: jig
M: 6/8
K: Eminor
|:BEF GFE|BEF GFE|F^DB F^DB|F^DB cBA|
BEF GFE|BEF GFE|F2B BcA|GAF E3:|
|:g2B BAB|g2g gfe|fed d^cd|afd fed|
g2B BAB|g2g gfe|f=fe ^d^cd|1 fe^d e2f:|2 fe^d e3||

